X: 4
T: Polska efter Johan Rydberg
M: 3/4
L: 1/16
K: Dmin
Q: 120
A2=B^c|: d2D2 D2D2 D2fg| f2e2 A2A2 A4| fefg a2f2 e2d2| d2^cd e2c2 A2=Bc|
d2D2 D2D2 D2fg| f2e2 A2A2 A4| fefg a2f2 e2d2|[1^cdec d4 A2=B^c:|
[2^cdec d6 fg |: a4 (3f2g2a2 (3f2g2a2| g3e (ce)ge| (ce)g2| Pfefg (a2f2)  e2d2|
d2^cd (e2c2) A4|  a4 (3f2g2a2 (3f2g2a2| g3e (ce)ge| (ce)g2| Pfefg (a2f2)  e2d2|
[1^cdec d6 fg:|[2 ^cdec d8|]

